icons/town-11.svg

<svg xmlns="http://www.w3.org/2000/svg" width="11.021" height="11" viewBox="0 0 11.021 11">
  <title>village-11</title>
  <g id="_15" data-name="15">
    <path d="M8.521,2l-1.5,1.469v6.5l1,.01V8h1V9.99l1,.01V3.5Zm.5,5h-1V6h1Zm0-1.969L8.021,5V4l1,.031Z"/>
    <path d="M3.521,1l-2.5,2.5V10h2V8h1v2h2V3.5Zm-.5,6h-1V6h1Zm0-2h-1V4h1Zm-.5-2,1-1,1,1Zm2.5,4h-1V6h1Zm0-2h-1V4h1Z"/>
  </g>
</svg>

<svg xmlns="http://www.w3.org/2000/svg" width="11" height="11" viewBox="0 0 11 11">
  <title>town-11</title>
  <g id="_15" data-name="15">
    <path d="M8.5,2,7,3.5V10H8V8H9v2h1V3.5ZM9,7H8V6H9ZM9,5H8V4H9Z"/>
    <path d="M3.5,1,1,3.5V10H3V8H4v2H6V3.5ZM3,7H2V6H3ZM3,5H2V4H3ZM2.5,3l1-1,1,1ZM5,7H4V6H5ZM5,5H4V4H5Z"/>
  </g>
</svg>
